X:187
T:Cream Pot
M:6/8
L:1/8
B:Thompson's Compleat Collection of 200 Favourite Country Dances, vol. 1 (London, 1757)
Z:Transcribed and edited by Flynn Titford-Mock, 2007
Z:abc's:AK/Fiddler's Companion
K:G
G2B B2d|dBd (e/f/g)e|G2B B2d|dBG AFD|E2(C C)EG|F2(D D)B,G,|(B/c/d)B cAF|G3 G,3:|
|:d2f f2g|gdB dBG|(c/d/e)c Aag|fed e^cA|a(f/g/a) g2e|f2d e^cA|(B/^c/d)F Edc|d3 D3|
=c2c cec|B2B BdB|AFA Agc|dBG AFD|E2(C C)EG|F2(D D)B,G,|(B/c/d)B cAF|G3 G,3:|

